icons/midnadark/actions/24/chronometer-reset.svg

<?xml version="1.0" encoding="UTF-8" standalone="no"?>
<!-- Created with Inkscape (http://www.inkscape.org/) -->

<svg
   xmlns:sketch="http://www.bohemiancoding.com/sketch/ns"
   xmlns:dc="http://purl.org/dc/elements/1.1/"
   xmlns:cc="http://creativecommons.org/ns#"
   xmlns:rdf="http://www.w3.org/1999/02/22-rdf-syntax-ns#"
   xmlns:svg="http://www.w3.org/2000/svg"
   xmlns="http://www.w3.org/2000/svg"
   xmlns:sodipodi="http://sodipodi.sourceforge.net/DTD/sodipodi-0.dtd"
   xmlns:inkscape="http://www.inkscape.org/namespaces/inkscape"
   width="22"
   height="22"
   id="svg3869"
   version="1.1"
   inkscape:version="0.91 r13725"
   sodipodi:docname="chronometer-reset.svg">
  <defs
     id="defs3871">
    <inkscape:perspective
       sodipodi:type="inkscape:persp3d"
       inkscape:vp_x="0 : 12 : 1"
       inkscape:vp_y="0 : 1000 : 0"
       inkscape:vp_z="24 : 12 : 1"
       inkscape:persp3d-origin="12 : 8 : 1"
       id="perspective4146" />
    <inkscape:perspective
       sodipodi:type="inkscape:persp3d"
       inkscape:vp_x="0 : 12 : 1"
       inkscape:vp_y="0 : 1000 : 0"
       inkscape:vp_z="24 : 12 : 1"
       inkscape:persp3d-origin="12 : 8 : 1"
       id="perspective4090" />
    <inkscape:perspective
       id="perspective4146-6"
       inkscape:persp3d-origin="12 : 8 : 1"
       inkscape:vp_z="24 : 12 : 1"
       inkscape:vp_y="0 : 1000 : 0"
       inkscape:vp_x="0 : 12 : 1"
       sodipodi:type="inkscape:persp3d" />
    <inkscape:perspective
       id="perspective4090-0"
       inkscape:persp3d-origin="12 : 8 : 1"
       inkscape:vp_z="24 : 12 : 1"
       inkscape:vp_y="0 : 1000 : 0"
       inkscape:vp_x="0 : 12 : 1"
       sodipodi:type="inkscape:persp3d" />
  </defs>
  <sodipodi:namedview
     id="base"
     pagecolor="#ffffff"
     bordercolor="#666666"
     borderopacity="1.0"
     inkscape:pageopacity="0.0"
     inkscape:pageshadow="2"
     inkscape:zoom="16.370174"
     inkscape:cx="-12.719006"
     inkscape:cy="11.955819"
     inkscape:document-units="px"
     inkscape:current-layer="layer1"
     showgrid="true"
     fit-margin-top="0"
     fit-margin-left="0"
     fit-margin-right="0"
     fit-margin-bottom="0"
     inkscape:window-width="1366"
     inkscape:window-height="633"
     inkscape:window-x="0"
     inkscape:window-y="33"
     inkscape:window-maximized="1"
     inkscape:showpageshadow="false"
     inkscape:object-nodes="true"
     inkscape:snap-bbox="true">
    <inkscape:grid
       type="xygrid"
       id="grid4132" />
    <sodipodi:guide
       position="4,18"
       orientation="18,0"
       id="guide4138" />
    <sodipodi:guide
       position="5,3"
       orientation="0,18"
       id="guide4140" />
    <sodipodi:guide
       position="20,2.0000174"
       orientation="-18,0"
       id="guide4142" />
    <sodipodi:guide
       position="2,21"
       orientation="0,-18"
       id="guide4144" />
    <sodipodi:guide
       position="3,19.000017"
       orientation="16,0"
       id="guide4146" />
    <sodipodi:guide
       position="2,4"
       orientation="0,16"
       id="guide4148" />
    <sodipodi:guide
       position="21,20"
       orientation="-16,0"
       id="guide4150" />
    <sodipodi:guide
       position="2,20"
       orientation="0,-16"
       id="guide4152" />
  </sodipodi:namedview>
  <metadata
     id="metadata3874">
    <rdf:RDF>
      <cc:Work
         rdf:about="">
        <dc:format>image/svg+xml</dc:format>
        <dc:type
           rdf:resource="http://purl.org/dc/dcmitype/StillImage" />
        <dc:title />
      </cc:Work>
    </rdf:RDF>
  </metadata>
  <g
     inkscape:label="Capa 1"
     inkscape:groupmode="layer"
     id="layer1"
     transform="translate(-326,-534.3622)">
    <g
       id="g4153"
       transform="translate(-0.99999975,1.0000003)"
       style="fill:#ffffff;fill-opacity:1">
      <g
         style="fill:#ffffff;fill-opacity:1"
         transform="matrix(0.0282076,0,0,0.0282076,330,536.3622)"
         id="g3">
        <path
           style="fill:#ffffff;fill-opacity:1"
           inkscape:connector-curvature="0"
           id="path5"
           d="m 464.986,141.272 c 0,0 8.996,9.052 15.346,0.017 l 12.101,-17.349 c 4.225,-6.103 -1.231,-10.327 -1.796,-10.744 l -73.412,-51.292 -0.017,0 c -4.52,-3.145 -7.521,-1.236 -9.1,0.533 l -1.311,1.891 -11.181,16.009 c -0.053,0.061 -6.315,9.937 3.695,15.159 l 0,0.013 c 14.295,7.035 40.526,21.868 65.657,45.814 l 0.018,-0.051 0,0 z" />
        <path
           style="fill:#ffffff;fill-opacity:1"
           inkscape:connector-curvature="0"
           id="path7"
           d="M 341.453,0 225.762,0 c -8.978,0 -16.334,7.213 -16.334,16.338 l 0,13.484 c 0,9.112 7.356,16.468 16.334,16.468 l 5.725,0 0,9.521 c 0.009,13.688 8.648,14.825 12.985,14.534 0.737,-0.109 1.501,-0.226 2.308,-0.33 0.009,0 0.122,-0.026 0.122,-0.026 l -0.009,0 c 15.397,-2.108 40.9,-4.125 70.151,-0.403 l 0.017,-0.026 c 0,0 18.737,3.474 18.686,-13.758 l 0,-9.52 5.725,0 c 8.987,0 16.325,-7.348 16.325,-16.473 l 0,-13.471 C 357.796,7.221 350.44,0 341.453,0 l 0,0 z" />
        <path
           style="fill:#ffffff;fill-opacity:1"
           d="M 11 5.5625 C 7.2895723 5.5625 4.28125 8.5704838 4.28125 12.28125 C 4.28125 15.991085 7.2895441 19 11 19 C 14.710399 19 17.71875 15.991057 17.71875 12.28125 C 17.71875 8.5704838 14.710399 5.5625 11 5.5625 z M 11.099609 8.5 C 11.641262 8.5 12.159276 8.6065057 12.652344 8.8183594 C 13.145476 9.030213 13.570064 9.3142681 13.927734 9.671875 C 14.285341 10.029482 14.571477 10.454198 14.783203 10.947266 C 14.994993 11.440334 15.099609 11.958284 15.099609 12.5 C 15.099609 13.041588 14.994993 13.559666 14.783203 14.052734 C 14.571349 14.545802 14.285341 14.97039 13.927734 15.328125 C 13.57 15.685668 13.145412 15.969851 12.652344 16.181641 C 12.159276 16.39343 11.641262 16.5 11.099609 16.5 C 10.502405 16.5 9.9346847 16.374727 9.3964844 16.123047 C 8.8582841 15.871367 8.3999954 15.514996 8.0214844 15.056641 C 7.9971922 15.021928 7.9865552 14.982923 7.9882812 14.939453 C 7.9900073 14.896047 8.0054589 14.861856 8.0332031 14.833984 L 8.7460938 14.115234 C 8.780806 14.083974 8.8248527 14.068359 8.8769531 14.068359 C 8.9325056 14.075327 8.9718015 14.096147 8.9960938 14.130859 C 9.2495638 14.460786 9.5597074 14.715955 9.9277344 14.896484 C 10.295825 15.077014 10.686386 15.166016 11.099609 15.166016 C 11.460668 15.166016 11.806629 15.095717 12.134766 14.955078 C 12.462838 14.814503 12.74673 14.624364 12.986328 14.384766 C 13.225926 14.145168 13.416002 13.86134 13.556641 13.533203 C 13.697216 13.205067 13.767578 12.861187 13.767578 12.5 C 13.767578 12.138813 13.697216 11.794933 13.556641 11.466797 C 13.416002 11.13866 13.225926 10.854768 12.986328 10.615234 C 12.74673 10.375636 12.462902 10.185561 12.134766 10.044922 C 11.806629 9.9043467 11.460732 9.8339844 11.099609 9.8339844 C 10.759327 9.8339844 10.433632 9.8943271 10.121094 10.017578 C 9.8086192 10.140893 9.5302233 10.317697 9.2871094 10.546875 L 10.001953 11.265625 C 10.109606 11.369826 10.133223 11.489603 10.074219 11.625 C 10.015214 11.763913 9.9134592 11.833984 9.7675781 11.833984 L 7.4335938 11.833984 C 7.343329 11.833984 7.2652552 11.800348 7.1992188 11.734375 C 7.1332462 11.668402 7.0996094 11.590265 7.0996094 11.5 L 7.0996094 9.1660156 C 7.0996094 9.0201984 7.1696807 8.9184434 7.3085938 8.859375 C 7.4440548 8.8003705 7.563768 8.8239878 7.6679688 8.9316406 L 8.3457031 9.6035156 C 8.7172461 9.2528128 9.1417348 8.981802 9.6191406 8.7890625 C 10.09661 8.596323 10.589217 8.5 11.099609 8.5 z "
           transform="matrix(35.451439,0,0,35.451439,-106.35432,-106.35433)"
           id="path9" />
      </g>
      <g
         style="fill:#ffffff;fill-opacity:1"
         inkscape:label="Capa 1"
         id="layer1-0"
         transform="matrix(0.33333334,0,0,0.33333334,204.57619,368.59629)">
        <g
           id="undo5"
           sketch:type="MSLayerGroup"
           transform="matrix(0.1917806,0,0,0.1917806,388.48954,519.71563)"
           style="fill:#ffffff;fill-opacity:1" />
      </g>
    </g>
  </g>
</svg>

<svg xmlns="http://www.w3.org/2000/svg" viewBox="0 0 22 22"><g transform="matrix(.02821 0 0 .02821 3 2.998)" fill="#fff"><path d="m464.99 141.27c0 0 8.996 9.05 15.346.017l12.1-17.349c4.225-6.103-1.231-10.327-1.796-10.744l-73.41-51.29h-.017c-4.52-3.145-7.521-1.236-9.1.533l-1.311 1.891-11.181 16.01c-.053.061-6.315 9.937 3.695 15.16v.013c14.295 7.03 40.526 21.868 65.66 45.814l.018-.051"/><path d="m341.45 0h-115.69c-8.978 0-16.334 7.213-16.334 16.338v13.484c0 9.112 7.356 16.468 16.334 16.468h5.725v9.521c.009 13.688 8.648 14.825 12.985 14.534.737-.109 1.501-.226 2.308-.33.009 0 .122-.026.122-.026h-.009c15.397-2.108 40.9-4.125 70.15-.403l.017-.026c0 0 18.737 3.474 18.686-13.758v-9.52h5.725c8.987 0 16.325-7.348 16.325-16.473v-13.471c-.0001-9.117-7.357-16.338-16.344-16.338"/><path d="m11 5.563c-3.71 0-6.719 3.01-6.719 6.719 0 3.71 3.01 6.719 6.719 6.719 3.71 0 6.719-3.01 6.719-6.719 0-3.711-3.01-6.719-6.719-6.719m.1 2.938c.542 0 1.06.107 1.553.318.493.212.918.496 1.275.854.358.358.644.782.855 1.275.212.493.316 1.011.316 1.553 0 .542-.105 1.06-.316 1.553-.212.493-.498.918-.855 1.275-.358.358-.782.642-1.275.854-.493.212-1.011.318-1.553.318-.597 0-1.165-.125-1.703-.377-.538-.252-.996-.608-1.375-1.066-.024-.035-.035-.074-.033-.117.002-.043.017-.078.045-.105l.713-.719c.035-.031.079-.047.131-.047.056.007.095.028.119.063.253.33.564.585.932.766.368.181.759.27 1.172.27.361 0 .707-.07 1.035-.211.328-.141.612-.331.852-.57.24-.24.43-.523.57-.852.141-.328.211-.672.211-1.033 0-.361-.07-.705-.211-1.033-.141-.328-.331-.612-.57-.852-.24-.24-.523-.43-.852-.57-.328-.141-.674-.211-1.035-.211-.34 0-.666.06-.979.184-.312.123-.591.3-.834.529l.715.719c.108.104.131.224.072.359-.059.139-.161.209-.307.209h-2.334c-.09 0-.168-.034-.234-.1-.066-.066-.1-.144-.1-.234v-2.334c0-.146.07-.248.209-.307.135-.059.255-.035.359.072l.678.672c.372-.351.796-.622 1.273-.814.477-.193.97-.289 1.48-.289" transform="matrix(35.45144 0 0 35.45144-106.35-106.35)"/></g></svg>
